X: 1
T: Farewell To Whalley Range
C: Michael McGoldrick
R: Slip Jig
M: 9/8
L: 1/8
K: F#min
|:F2 c BAF F2 E|F2 c Bce fec|B3 BAB cBA|1 B3 BAB cBA:|2 B3 BAB cef||
|:a2f fec fec|B3 BAB cef|a2f baf afe|1 fec Bce fec:|2 fec fec BAB||